Obsidian/status/22s/tusk-indicator.svg

<svg height="22" width="22" xmlns="http://www.w3.org/2000/svg"><path d="m3.800781 3.0000002c-.4432 0-.800781.3575813-.800781.8007813v14.3984375c0 .4432.357581.800781.800781.800781h14.398438c.4432 0 .800781-.357581.800781-.800781v-14.3984375c0-.4432-.357581-.8007813-.800781-.8007813zm4 4.0000001h6.398438c.4432 0 .800781.3575812.800781.8007812v6.3984375c0 .4432-.357581.800781-.800781.800781h-6.398438c-.4432 0-.800781-.357581-.800781-.800781v-6.3984375c0-.4432.357581-.8007812.800781-.8007812z" fill="#d3dae3"/></svg>

<svg xmlns="http://www.w3.org/2000/svg" width="22" height="22" version="1.1">
 <defs>
  <style id="current-color-scheme" type="text/css">
   .ColorScheme-Text { color:#d3dae3; } .ColorScheme-Highlight { color:#5294e2; }
  </style>
 </defs>
 <path style="fill:currentColor" class="ColorScheme-Text" d="M 3.800781,3.0000002 C 3.357581,3.0000002 3,3.3575815 3,3.8007815 L 3,18.199219 C 3,18.642419 3.357581,19 3.800781,19 l 14.398438,0 C 18.642419,19 19,18.642419 19,18.199219 L 19,3.8007815 c 0,-0.4432 -0.357581,-0.8007813 -0.800781,-0.8007813 l -14.398438,0 z m 4,4.0000001 6.398438,0 C 14.642419,7.0000003 15,7.3575815 15,7.8007815 l 0,6.3984375 C 15,14.642419 14.642419,15 14.199219,15 L 7.800781,15 C 7.357581,15 7,14.642419 7,14.199219 L 7,7.8007815 c 0,-0.4432 0.357581,-0.8007812 0.800781,-0.8007812 z"/>
</svg>
